icons/glyphs/glyph-bell.svg

<?xml version="1.0" encoding="UTF-8" standalone="no"?><svg height="16" viewBox="0 0 4.2333333 4.2333333" width="16" xmlns="http://www.w3.org/2000/svg"><sodipodi:namedview/><metadata><rdf:RDF><cc:Work><dc:format>image/svg+xml</dc:format><dc:type/><dc:title/></cc:Work></rdf:RDF></metadata><path d="m2.1166667 0a .30949222.37390841 0 0 0 -.3093618.37329161.30949222.37390841 0 0 0  .00147.03233239c-.6850379.14136942-1.19703207.7444679-1.19703207 1.4725915v1.1720478c0 .095006-.0379.1863352-.1050801.253515-.06718.06718-.1577732.1050802-.25278021.1050802-.0890868 0-.16166175.07184-.16166175.1609268 0 .089087.0725743.1616619.16166175.1616619h1.36089788a.50164132.50164132 0 0 0  .5018863.5018861.50164132.50164132 0 0 0  .5018862-.5018861h1.360898c.089087-.0000004.1616616-.072575.1616616-.1616619 0-.089087-.072575-.1609272-.1616616-.1609268-.095007 0-.1856004-.0379-.2527802-.1050802-.06718-.06718-.1050801-.1585087-.1050801-.253515v-1.1720478c0-.7281236-.5119943-1.33122208-1.1970318-1.4725915a.30949222.37390841 0 0 0  .00147-.03233239.30949222.37390841 0 0 0 -.3093621-.37329161z" fill="#d0d0d0" stroke-width=".284125"/></svg>

<?xml version="1.0" encoding="UTF-8" standalone="no"?>
<svg height="16" viewBox="0 0 4.2333333 4.2333333" width="16" xmlns="http://www.w3.org/2000/svg">
	<sodipodi:namedview/>
	<metadata>
		<rdf:RDF>
			<cc:Work>
				<dc:format>image/svg+xml			</dc:format>
			<dc:type/>
			<dc:title/>
		</cc:Work>
	</rdf:RDF>
</metadata>
<path d="M 2.1166667 0 A .30949222 .37390841 0 0 0 1.8073049 .37329161 A .30949222 .37390841 0 0 0 1.8087749 .405624 C 1.123737 .54699342 .61174283 1.1500919 .61174283 1.8782155 v 1.1720478 c 0 .095006 -.0379 .1863352 -.1050801 .253515 c -.06718 .06718 -.1577732 .1050802 -.25278021 .1050802 c -.0890868 0 -.16166175 .07184 -.16166175 .1609268 c 0 .089087 .0725743 .1616619 .16166175 .1616619 H 1.6147804 A .50164132 .50164132 0 0 0 2.1166667 4.2333333 A .50164132 .50164132 0 0 0 2.6185529 3.7314472 h 1.360898 c .089087 -.0000004 .1616616 -.072575 .1616616 -.1616619 c 0 -.089087 -.072575 -.1609272 -.1616616 -.1609268 c -.095007 0 -.1856004 -.0379 -.2527802 -.1050802 c -.06718 -.06718 -.1050801 -.1585087 -.1050801 -.253515 V 1.8782155 c 0 -.7281236 -.5119943 -1.33122208 -1.1970318 -1.4725915 A .30949222 .37390841 0 0 0 2.4260288 .37329161 A .30949222 .37390841 0 0 0 2.1166667 0 Z" fill="#d0d0d0" stroke-width=".284125"/>
</svg>
